public/assets/images/lock-light.svg

<svg width="24" height="25" viewBox="0 0 24 25" fill="none" xmlns="http://www.w3.org/2000/svg">
<g id="lock">
<path id="Vector" d="M18 8.70117H17V6.70117C17 3.94117 14.76 1.70117 12 1.70117C9.24 1.70117 7 3.94117 7 6.70117V8.70117H6C4.9 8.70117 4 9.60117 4 10.7012V20.7012C4 21.8012 4.9 22.7012 6 22.7012H18C19.1 22.7012 20 21.8012 20 20.7012V10.7012C20 9.60117 19.1 8.70117 18 8.70117ZM9 6.70117C9 5.04117 10.34 3.70117 12 3.70117C13.66 3.70117 15 5.04117 15 6.70117V8.70117H9V6.70117ZM18 20.7012H6V10.7012H18V20.7012ZM12 17.7012C13.1 17.7012 14 16.8012 14 15.7012C14 14.6012 13.1 13.7012 12 13.7012C10.9 13.7012 10 14.6012 10 15.7012C10 16.8012 10.9 17.7012 12 17.7012Z" fill="#A2A2FF"/>
</g>
</svg>

<svg width="24" height="25" fill="none" xmlns="http://www.w3.org/2000/svg"><path d="M18 8.701h-1v-2c0-2.76-2.24-5-5-5s-5 2.24-5 5v2H6c-1.1 0-2 .9-2 2v10c0 1.1.9 2 2 2h12c1.1 0 2-.9 2-2v-10c0-1.1-.9-2-2-2zm-9-2c0-1.66 1.34-3 3-3s3 1.34 3 3v2H9v-2zm9 14H6v-10h12v10zm-6-3c1.1 0 2-.9 2-2s-.9-2-2-2-2 .9-2 2 .9 2 2 2z" fill="#A2A2FF"/></svg>
